X: 0632
T: DANDY JIM OF CAROLINE
B: Oliver Ditson "The Boston Collection of Instrumental Music" 1910 p.63 #2
F: http://conquest.imslp.info/files/imglnks/usimg/8/8f/IMSLP175643-PMLP309456-bostoncollection00bost_bw.pdf
M: 2/4
L: 1/16
K: F
c2 |\
f2c2 d2c2 | A2c2 c2c2 | f2c2 d2c2 | A2F2F2 c2 |\
f2c2 edcB | A2c2 c2c2 | d2f2 c2B2 | A2F2F2 :|
|: FG |\
A2A2 G2F2 | D2F2 F2G2 | Acfe dcBA | B2G2G2 FG |\
A2BA G2F2 | D2F2 F4   | f2c2 edcB | A2F2F2 :|

%%sep 1 1 500
%%sep 1 1 500
